public/img/home/solutions/icon-solutions-02.svg

<svg fill="none" height="87" viewBox="0 0 109 87" width="109" xmlns="http://www.w3.org/2000/svg"><g fill="#fff"><path d="m69.9765 50.1521c-.273 0-.4941.2177-.4941.4849v16.0699h-47.4941v-55.1483c0-4.1841 3.4693-7.58797 7.7328-7.58797h32.0292c4.2636 0 7.7321 3.40387 7.7321 7.58797v10.6848c0 .268.2219.485.4941.485s.4941-.2178.4941-.485v-10.6848c0-4.71916-3.9123-8.5586-8.7211-8.5586h-32.0292c-4.808 0-8.7203 3.83944-8.7203 8.5586v62.8828c0 4.7192 3.9123 8.5586 8.7211 8.5586h32.0292c4.8088 0 8.7211-3.8394 8.7211-8.5579v-23.8043c0-.2672-.2219-.485-.4941-.485zm-.4941 24.2893c0 4.1841-3.4685 7.588-7.7321 7.588h-32.03c-4.2635 0-7.732-3.4039-7.732-7.588v-6.7639h47.4933v6.7639z"/><path d="m45.3242 79.6321c2.4587 0 4.4584-1.9624 4.4584-4.3745s-1.9997-4.3753-4.4584-4.3753-4.4576 1.9624-4.4576 4.3753 1.9997 4.3745 4.4576 4.3745zm0-7.9672c2.018 0 3.6601 1.6115 3.6601 3.5919 0 1.9805-1.6421 3.5911-3.6601 3.5911s-3.6593-1.6114-3.6593-3.5911c0-1.9796 1.6421-3.5919 3.6593-3.5919z"/><path d="m61.783 13.1625c0-.235-.1947-.4262-.4342-.4262h-32.8698c-.2395 0-.4342.1912-.4342.4262s.1947.4262.4342.4262h32.8698c.2395 0 .4342-.1912.4342-.4262z"/><path d="m68.1508 34.2092c-1.1718.2561-2.0994 1.1649-2.3612 2.3149-.2419 1.0584.0742 2.1426.8453 2.8994.6011.5899 1.4042.9087 2.24.9087.2371 0 .4766-.0258.7144-.0776 1.1727-.2569 2.0987-1.1664 2.3597-2.3172.2403-1.0576-.0758-2.1411-.8461-2.8971-.7704-.7559-1.8736-1.0669-2.9521-.8311zm3.0191 3.5574c-.1916.8421-.8964 1.5347-1.7546 1.7227-.811.1778-1.6396-.0541-2.216-.6205-.5763-.5664-.8126-1.3788-.6306-2.1739.1924-.8422.898-1.5339 1.7562-1.7219.1788-.0392.3592-.058.5364-.058.6267 0 1.2286.2381 1.6772.6784.5763.5656.8126 1.378.6314 2.1724z"/><path d="m73.4506 30.2694c-.1676.1403-.1876.3878-.0447.5523.0231.0267 2.299 2.6894 2.299 6.4114 0 3.7219-2.2687 6.3776-2.291 6.4027-.1485.1598-.1365.4082.0271.5531.0766.0681.1724.1018.2682.1018.1086 0 .2172-.0431.2954-.1285.1022-.1104 2.4986-2.7466 2.4986-6.9291 0-4.1826-2.3892-6.8039-2.4906-6.9206-.1429-.1637-.3952-.1833-.562-.0431z"/><path d="m79.7785 29.2298c-.9858-1.9373-1.9637-3.067-2.0052-3.1148-.1429-.1645-.3952-.1833-.5628-.0431-.1677.1403-.1868.3878-.0439.5523.0383.0439 3.8069 4.4458 3.8069 10.6081 0 6.1622-3.7606 10.5578-3.7989 10.5986-.1485.1598-.1366.4081.0271.553.0766.0682.1724.1019.2682.1019.1086 0 .2171-.0431.2954-.1285.0415-.0446 1.0234-1.1148 2.0116-3.0247.9101-1.7579 1.9949-4.5899 1.9949-8.1011s-1.084-6.2163-1.9933-8.0025z"/><path d="m85.0471 26.0877c-1.3738-2.698-2.7317-4.2672-2.7883-4.3322-.1429-.1645-.3952-.1833-.5628-.0423-.1677.1402-.1868.3878-.0439.5523.0135.0157 1.3618 1.5762 2.6918 4.1951 1.2229 2.409 2.6814 6.2327 2.6814 10.7725 0 4.5399-1.4561 8.5352-2.6783 10.9018-1.3275 2.5719-2.6742 4.0432-2.6869 4.0573-.1485.1598-.1365.4081.0271.553.0766.0682.1724.1019.2682.1019.1086 0 .2171-.0431.2954-.1285.0575-.0619 1.4193-1.5464 2.7947-4.2045 1.2669-2.4481 2.778-6.3925 2.778-11.2817s-1.5103-8.6566-2.7764-11.1447z"/><path d="m55.9484 47.1632 5.6159-12.3041h-19.9497v.7834h18.718l-4.9007 10.7372h-17.364l-3.5116-17.3538h-5.5185v.7834h4.8631l4.1335 20.4279c-1.2134.4027-2.149 1.4078-2.4324 2.6503-.2874 1.2597.0886 2.5491 1.0058 3.45.7153.702 1.6708 1.0811 2.6655 1.0811.2818 0 .5668-.0305.8509-.0924 1.3946-.3063 2.4962-1.3874 2.8068-2.756.0335-.1489.0574-.2985.0734-.4481h2.9816c.0902.8296.4606 1.6107 1.0776 2.2154.7153.702 1.6708 1.0811 2.6655 1.0811.2818 0 .5668-.0305.8509-.0924 1.3946-.3063 2.4962-1.3874 2.8068-2.756.2858-1.2589-.0902-2.5484-1.0067-3.4477-.9164-.8994-2.2295-1.2692-3.5132-.9887-1.3937.3047-2.497 1.3858-2.8091 2.7537-.0343.1504-.0583.3008-.0742.4512h-2.9816c-.0902-.8296-.4614-1.6107-1.0777-2.2162-.8206-.8054-1.9589-1.1845-3.11-1.0537l-.5876-2.9049h17.7225zm-9.1139 5.895c.2411-1.0568 1.1264-1.9248 2.2033-2.1606.2243-.0493.4494-.0728.6721-.0728.7855 0 1.5399.2984 2.1027.8507.7224.709 1.0186 1.7274.7919 2.7231-.2403 1.0568-1.1248 1.9256-2.2017 2.1614-1.0162.2233-2.0547-.0681-2.7772-.7779-.7232-.7097-1.0186-1.7282-.7911-2.7247zm-5.4761-1.3819c.7224.709 1.0186 1.7274.7919 2.7231-.2403 1.0568-1.1248 1.9256-2.2017 2.1614-1.0162.2233-2.0547-.0681-2.7772-.7779-.7232-.7098-1.0186-1.7282-.7911-2.7247.2411-1.0568 1.1264-1.9248 2.2033-2.1606.2243-.0493.4494-.0728.6721-.0728.7855 0 1.5399.2984 2.1027.8507z"/></g></svg>

<svg width="109" height="87" viewBox="0 0 109 87" fill="none" xmlns="http://www.w3.org/2000/svg">
<path d="M69.9765 50.1521C69.7035 50.1521 69.4824 50.3698 69.4824 50.637V66.7069H21.9883V11.5586C21.9883 7.3745 25.4576 3.97063 29.7211 3.97063H61.7503C66.0139 3.97063 69.4824 7.3745 69.4824 11.5586V22.2434C69.4824 22.5114 69.7043 22.7284 69.9765 22.7284C70.2487 22.7284 70.4706 22.5106 70.4706 22.2434V11.5586C70.4706 6.83944 66.5583 3 61.7495 3H29.7203C24.9123 3 21 6.83944 21 11.5586V74.4414C21 79.1606 24.9123 83 29.7211 83H61.7503C66.5591 83 70.4714 79.1606 70.4714 74.4421V50.6378C70.4714 50.3706 70.2495 50.1528 69.9773 50.1528L69.9765 50.1521ZM69.4824 74.4414C69.4824 78.6255 66.0139 82.0294 61.7503 82.0294H29.7203C25.4568 82.0294 21.9883 78.6255 21.9883 74.4414V67.6775H69.4816V74.4414H69.4824Z" fill="white"/>
<path d="M45.3242 79.6321C47.7829 79.6321 49.7826 77.6697 49.7826 75.2576C49.7826 72.8455 47.7829 70.8823 45.3242 70.8823C42.8655 70.8823 40.8666 72.8447 40.8666 75.2576C40.8666 77.6705 42.8663 79.6321 45.3242 79.6321ZM45.3242 71.6649C47.3422 71.6649 48.9843 73.2764 48.9843 75.2568C48.9843 77.2373 47.3422 78.8479 45.3242 78.8479C43.3062 78.8479 41.6649 77.2365 41.6649 75.2568C41.6649 73.2772 43.307 71.6649 45.3242 71.6649Z" fill="white"/>
<path d="M61.783 13.1625C61.783 12.9275 61.5883 12.7363 61.3488 12.7363H28.479C28.2395 12.7363 28.0448 12.9275 28.0448 13.1625C28.0448 13.3975 28.2395 13.5887 28.479 13.5887H61.3488C61.5883 13.5887 61.783 13.3975 61.783 13.1625Z" fill="white"/>
<path d="M68.1508 34.2092C66.979 34.4653 66.0514 35.3741 65.7896 36.5241C65.5477 37.5825 65.8638 38.6667 66.6349 39.4235C67.236 40.0134 68.0391 40.3322 68.8749 40.3322C69.112 40.3322 69.3515 40.3064 69.5893 40.2546C70.762 39.9977 71.688 39.0882 71.949 37.9374C72.1893 36.8798 71.8732 35.7963 71.1029 35.0403C70.3325 34.2844 69.2293 33.9734 68.1508 34.2092ZM71.1699 37.7666C70.9783 38.6087 70.2735 39.3013 69.4153 39.4893C68.6043 39.6671 67.7757 39.4352 67.1993 38.8688C66.623 38.3024 66.3867 37.49 66.5687 36.6949C66.7611 35.8527 67.4667 35.161 68.3249 34.973C68.5037 34.9338 68.6841 34.915 68.8613 34.915C69.488 34.915 70.0899 35.1531 70.5385 35.5934C71.1148 36.159 71.3511 36.9714 71.1699 37.7658V37.7666Z" fill="white"/>
<path d="M73.4506 30.2694C73.283 30.4097 73.263 30.6572 73.4059 30.8217C73.429 30.8484 75.7049 33.5111 75.7049 37.2331C75.7049 40.955 73.4362 43.6107 73.4139 43.6358C73.2654 43.7956 73.2774 44.044 73.441 44.1889C73.5176 44.257 73.6134 44.2907 73.7092 44.2907C73.8178 44.2907 73.9264 44.2476 74.0046 44.1622C74.1068 44.0518 76.5032 41.4156 76.5032 37.2331C76.5032 33.0505 74.114 30.4292 74.0126 30.3125C73.8697 30.1488 73.6174 30.1292 73.4506 30.2694Z" fill="white"/>
<path d="M79.7785 29.2298C78.7927 27.2925 77.8148 26.1628 77.7733 26.115C77.6304 25.9505 77.3781 25.9317 77.2105 26.0719C77.0428 26.2122 77.0237 26.4597 77.1666 26.6242C77.2049 26.6681 80.9735 31.07 80.9735 37.2323C80.9735 43.3945 77.2129 47.7901 77.1746 47.8309C77.0261 47.9907 77.038 48.239 77.2017 48.3839C77.2783 48.4521 77.3741 48.4858 77.4699 48.4858C77.5785 48.4858 77.687 48.4427 77.7653 48.3573C77.8068 48.3127 78.7887 47.2425 79.7769 45.3326C80.687 43.5747 81.7718 40.7427 81.7718 37.2315C81.7718 33.7203 80.6878 31.0152 79.7785 29.229V29.2298Z" fill="white"/>
<path d="M85.0471 26.0877C83.6733 23.3897 82.3154 21.8205 82.2588 21.7555C82.1159 21.591 81.8636 21.5722 81.696 21.7132C81.5283 21.8534 81.5092 22.101 81.6521 22.2655C81.6656 22.2812 83.0139 23.8417 84.3439 26.4606C85.5668 28.8696 87.0253 32.6933 87.0253 37.2331C87.0253 41.773 85.5692 45.7683 84.347 48.1349C83.0195 50.7068 81.6728 52.1781 81.6601 52.1922C81.5116 52.352 81.5236 52.6003 81.6872 52.7452C81.7638 52.8134 81.8596 52.8471 81.9554 52.8471C82.064 52.8471 82.1725 52.804 82.2508 52.7186C82.3083 52.6567 83.6701 51.1722 85.0455 48.5141C86.3124 46.066 87.8235 42.1216 87.8235 37.2324C87.8235 32.3432 86.3132 28.5758 85.0471 26.0877Z" fill="white"/>
<path d="M55.9484 47.1632L61.5643 34.8591H41.6146V35.6425H60.3326L55.4319 46.3797H38.0679L34.5563 29.0259H29.0378V29.8093H33.9009L38.0344 50.2372C36.821 50.6399 35.8854 51.645 35.602 52.8875C35.3146 54.1472 35.6906 55.4366 36.6078 56.3375C37.3231 57.0395 38.2786 57.4186 39.2733 57.4186C39.5551 57.4186 39.8401 57.3881 40.1242 57.3262C41.5188 57.0199 42.6204 55.9388 42.931 54.5702C42.9645 54.4213 42.9884 54.2717 43.0044 54.1221H45.986C46.0762 54.9517 46.4466 55.7328 47.0636 56.3375C47.7789 57.0395 48.7344 57.4186 49.7291 57.4186C50.0109 57.4186 50.2959 57.3881 50.58 57.3262C51.9746 57.0199 53.0762 55.9388 53.3868 54.5702C53.6726 53.3113 53.2966 52.0218 52.3801 51.1225C51.4637 50.2231 50.1506 49.8533 48.8669 50.1338C47.4732 50.4385 46.3699 51.5196 46.0578 52.8875C46.0235 53.0379 45.9995 53.1883 45.9836 53.3387H43.002C42.9118 52.5091 42.5406 51.728 41.9243 51.1225C41.1037 50.3171 39.9654 49.938 38.8143 50.0688L38.2267 47.1639H55.9492L55.9484 47.1632ZM46.8345 53.0582C47.0756 52.0014 47.9609 51.1334 49.0378 50.8976C49.2621 50.8483 49.4872 50.8248 49.7099 50.8248C50.4954 50.8248 51.2498 51.1232 51.8126 51.6755C52.535 52.3845 52.8312 53.4029 52.6045 54.3986C52.3642 55.4554 51.4797 56.3242 50.4028 56.56C49.3866 56.7833 48.3481 56.4919 47.6256 55.7821C46.9024 55.0724 46.607 54.0539 46.8345 53.0574V53.0582ZM41.3584 51.6763C42.0808 52.3853 42.377 53.4037 42.1503 54.3994C41.91 55.4562 41.0255 56.325 39.9486 56.5608C38.9324 56.7841 37.8939 56.4927 37.1714 55.7829C36.4482 55.0731 36.1528 54.0547 36.3803 53.0582C36.6214 52.0014 37.5067 51.1334 38.5836 50.8976C38.8079 50.8483 39.033 50.8248 39.2557 50.8248C40.0412 50.8248 40.7956 51.1232 41.3584 51.6755V51.6763Z" fill="white"/>
</svg>
